symbols/web/analytics/materialsymbolssharp/analytics_wght600_24px.svg

<svg xmlns="http://www.w3.org/2000/svg" height="24" width="24"><path d="M2.525 21.475V2.525h18.95v18.95Zm2.65-2.65h13.65V5.175H5.175ZM7.075 17h2v-5h-2Zm7.85 0h2V7h-2ZM11 17h2v-3h-2Zm0-5h2v-2h-2Zm-5.825 6.825V5.175v13.65Z"/></svg>

<svg xmlns="http://www.w3.org/2000/svg" height="24" width="24"><path d="M2.525 21.475V2.525H21.475V21.475ZM5.175 18.825H18.825V5.175H5.175ZM7.075 17H9.075V12H7.075ZM14.925 17H16.925V7H14.925ZM11 17H13V14H11ZM11 12H13V10H11ZM5.175 18.825V5.175V18.825Z"/></svg>
